img/orderStage5.svg

<svg fill="none" height="68" viewBox="0 0 68 68" width="68" xmlns="http://www.w3.org/2000/svg"><g fill="#66c4ff"><path d="m57.1562 9.91379c-1.5249-2.25489-3.6428-4.00177-6.138-5.07251-.0716-.07849-.1523-.15034-.2444-.2117l-6.6061-4.406322c-.3096-.2063908-.6916-.2734611-1.0526-.1852736-.0524.0128828-.1033.0296172-.1532.0484765.0089-.0289531.0166-.0560468.0265-.0864609h-18.5867c0 .00053125-.0001.00092969-.0002.00146094-.2598.00013281-.5167.07503906-.7366.22179706l-6.606 4.406322c-.1349.08991-.2473.20121-.3376.32579-2.3824 1.07883-4.4058 2.78229-5.8776 4.95842-1.58924 2.34961-2.42915 5.09101-2.42915 7.92741v30.6378c0 .7333.59474 1.3281 1.32813 1.3281h7.35992c.7334 0 1.3281-.5948 1.3281-1.3281v-17.053l1.2254 3.6522v6.3331.0002 25.2604c0 .7334.5947 1.3281 1.3281 1.3281h26.0312c.7334 0 1.3282-.5947 1.3282-1.3281v-25.2603-6.1612l1.2254-3.7077v16.9363c0 .7333.5948 1.3281 1.3282 1.3281h7.3599c.7334 0 1.3281-.5948 1.3281-1.3281v-30.6378c0-2.8364-.84-5.5778-2.429-7.92741zm-13.2588-6.67795 4.365 2.91152-10.0916 17.41384-2.7274-4.9491zm-2.7126-.57959-7.2587 13.20245-7.276-13.20245zm-22.823 20.21325c-.2072-.6172-.8306-.9941-1.4731-.8882-.6425.1049-1.1142.6598-1.1142 1.3107v23.8588h-4.7038v-29.3096c0-4.3635 2.4191-8.26861 6.2444-10.22414l4.5876 8.34404c.3534.6429 1.1609.8771 1.8038.5239.6426-.3535.8772-1.161.5238-1.8038l-4.6835-8.51843 4.3893-2.92772 8.7219 15.82655c.0254.0751.0551.1489.0943.2196l4.2248 7.6177 3.7527 6.8096h-6.0383l-5.9404-10.8046c-.3533-.6428-1.1609-.8771-1.8038-.5238-.6426.3534-.8772 1.1609-.5238 1.8037l5.2368 9.5247h-9.6622zm15.8137 42.4743h-11.863v-22.6041h11.863zm11.5118 0h-8.8557v-22.6041h3.5432v13.5788c0 .7334.5948 1.3281 1.3281 1.3281.7334 0 1.3282-.5947 1.3282-1.3281v-13.5788h2.6562zm0-25.2605-23.375-.0001v-3.7186h11.3957c.0684.0109.1376.0181.2081.0181h9.0722c.0701 0 .1392-.0073.2073-.0181h2.4917zm11.2417 7.0675h-4.7037v-23.8588c0-.652-.4732-1.2077-1.1171-1.3113-.6435-.1034-1.2674.2755-1.4721.8945l-3.5804 10.8331h-2.2928l-4.0957-7.4319 10.8603-18.74022c3.9165 1.92791 6.4015 5.88172 6.4015 10.30492z"/><path d="m26.2262 18.4223c-.247-.247-.5897-.3891-.939-.3891s-.6919.142-.9388.3891c-.2471.2469-.3893.5896-.3893.939 0 .3493.1421.692.3893.9389.2469.2471.5897.3893.9388.3893.3493 0 .692-.1422.939-.3893.2484-.2469.3905-.5896.3905-.9389 0-.3494-.1421-.6921-.3905-.939z"/><path d="m42.642 60.1653c-.2469-.2472-.5896-.3892-.9389-.3892-.3507 0-.6919.142-.939.3892-.247.2471-.3891.5897-.3891.9403 0 .3493.142.6906.3891.939.2471.2469.5897.3878.939.3878s.692-.1409.9389-.3878c.247-.2484.3892-.5897.3892-.939-.0001-.3506-.1422-.692-.3892-.9403z"/></g></svg>

<svg width="68" height="68" viewBox="0 0 68 68" fill="none" xmlns="http://www.w3.org/2000/svg">
<path d="M57.1562 9.91379C55.6313 7.6589 53.5134 5.91202 51.0182 4.84128C50.9466 4.76279 50.8659 4.69094 50.7738 4.62958L44.1677 0.223258C43.8581 0.0168672 43.4761 -0.0502031 43.1151 0.0379844C43.0627 0.0508672 43.0118 0.0676016 42.9619 0.0864609C42.9708 0.0575078 42.9785 0.0304141 42.9884 0H24.4017C24.4017 0.00053125 24.4016 0.000929687 24.4015 0.00146094C24.1417 0.00159375 23.8848 0.0765 23.6649 0.223258L17.0589 4.62958C16.924 4.71949 16.8116 4.83079 16.7213 4.95537C14.3389 6.0342 12.3155 7.73766 10.8437 9.91379C9.25446 12.2634 8.41455 15.0048 8.41455 17.8412V48.479C8.41455 49.2123 9.00929 49.8071 9.74268 49.8071H17.1026C17.836 49.8071 18.4307 49.2123 18.4307 48.479V31.426L19.6561 35.0782V41.4113V41.4115V66.6719C19.6561 67.4053 20.2508 68 20.9842 68H47.0154C47.7488 68 48.3436 67.4053 48.3436 66.6719V41.4116V35.2504L49.569 31.5427V48.479C49.569 49.2123 50.1638 49.8071 50.8972 49.8071H58.2571C58.9905 49.8071 59.5852 49.2123 59.5852 48.479V17.8412C59.5852 15.0048 58.7452 12.2634 57.1562 9.91379ZM43.8974 3.23584L48.2624 6.14736L38.1708 23.5612L35.4434 18.6121L43.8974 3.23584ZM41.1848 2.65625L33.9261 15.8587L26.6501 2.65625H41.1848ZM18.3618 22.8695C18.1546 22.2523 17.5312 21.8754 16.8887 21.9813C16.2462 22.0862 15.7745 22.6411 15.7745 23.292V47.1508H11.0707V17.8412C11.0707 13.4777 13.4898 9.57259 17.3151 7.61706L21.9027 15.9611C22.2561 16.604 23.0636 16.8382 23.7065 16.485C24.3491 16.1315 24.5837 15.324 24.2303 14.6812L19.5468 6.16277L23.9361 3.23505L32.658 19.0616C32.6834 19.1367 32.7131 19.2105 32.7523 19.2812L36.9771 26.8989L40.7298 33.7085H34.6915L28.7511 22.9039C28.3978 22.2611 27.5902 22.0268 26.9473 22.3801C26.3047 22.7335 26.0701 23.541 26.4235 24.1838L31.6603 33.7085H21.9981L18.3618 22.8695ZM34.1755 65.3438H22.3125V42.7397H34.1755V65.3438ZM45.6873 65.3438H36.8316V42.7397H40.3748V56.3185C40.3748 57.0519 40.9696 57.6466 41.7029 57.6466C42.4363 57.6466 43.0311 57.0519 43.0311 56.3185V42.7397H45.6873V65.3438ZM45.6873 40.0833L22.3123 40.0832V36.3646H33.708C33.7764 36.3755 33.8456 36.3827 33.9161 36.3827H42.9883C43.0584 36.3827 43.1275 36.3754 43.1956 36.3646H45.6873V40.0833ZM56.929 47.1508H52.2253V23.292C52.2253 22.64 51.7521 22.0843 51.1082 21.9807C50.4647 21.8773 49.8408 22.2562 49.6361 22.8752L46.0557 33.7083H43.7629L39.6672 26.2764L50.5275 7.53618C54.444 9.46409 56.929 13.4179 56.929 17.8411V47.1508Z" fill="#66C4FF"/>
<path d="M26.2262 18.4223C25.9792 18.1753 25.6365 18.0332 25.2872 18.0332C24.9379 18.0332 24.5953 18.1752 24.3484 18.4223C24.1013 18.6692 23.9591 19.0119 23.9591 19.3613C23.9591 19.7106 24.1012 20.0533 24.3484 20.3002C24.5953 20.5473 24.9381 20.6895 25.2872 20.6895C25.6365 20.6895 25.9792 20.5473 26.2262 20.3002C26.4746 20.0533 26.6167 19.7106 26.6167 19.3613C26.6167 19.0119 26.4746 18.6692 26.2262 18.4223Z" fill="#66C4FF"/>
<path d="M42.642 60.1653C42.3951 59.9181 42.0524 59.7761 41.7031 59.7761C41.3524 59.7761 41.0112 59.9181 40.7641 60.1653C40.5171 60.4124 40.375 60.755 40.375 61.1056C40.375 61.4549 40.517 61.7962 40.7641 62.0446C41.0112 62.2915 41.3538 62.4324 41.7031 62.4324C42.0524 62.4324 42.3951 62.2915 42.642 62.0446C42.889 61.7962 43.0312 61.4549 43.0312 61.1056C43.0311 60.755 42.889 60.4136 42.642 60.1653Z" fill="#66C4FF"/>
</svg>
